img/Ico/Cloud.svg

<svg width="22" height="22" viewBox="0 0 22 22" fill="none" xmlns="http://www.w3.org/2000/svg">
<path d="M4.21865 11.1853L4.37667 11.1483L4.35166 10.988C4.31801 10.7722 4.3 10.5506 4.3 10.325C4.3 8.00535 6.1804 6.12495 8.5 6.12495C10.3969 6.12495 12.0004 7.38294 12.5212 9.10986L12.5957 9.35679L12.7976 9.19634C13.2484 8.83817 13.8166 8.62495 14.4375 8.62495C15.7949 8.62495 16.9139 9.65068 17.0592 10.9691L17.0764 11.125H17.2331H17.2519C18.5321 11.125 19.575 12.166 19.575 13.45C19.575 14.7317 18.535 15.775 17.2519 15.775H4.74813C3.4679 15.775 2.425 14.7339 2.425 13.45C2.425 12.3499 3.191 11.426 4.21865 11.1853ZM21.175 13.45C21.175 11.6715 19.9933 10.1707 18.3729 9.68806C17.7478 8.1276 16.2214 7.02495 14.4375 7.02495C14.0661 7.02495 13.7058 7.07288 13.3619 7.16283C12.3278 5.57485 10.5365 4.52495 8.5 4.52495C5.37167 4.52495 2.8222 7.00169 2.70419 10.1007C1.57786 10.7912 0.825 12.0343 0.825 13.45C0.825 15.6166 2.58271 17.375 4.75 17.375H17.25C19.4167 17.375 21.175 15.6134 21.175 13.45Z" fill="#030104" stroke="black" stroke-width="0.35"/>
</svg>

<svg width="22" height="22" fill="none" xmlns="http://www.w3.org/2000/svg"><path d="m4.219 11.185.158-.037-.025-.16a4.2 4.2 0 0 1 8.17-1.878l.074.247.202-.16a2.638 2.638 0 0 1 4.262 1.773l.016.155h.176a2.326 2.326 0 0 1 0 4.65H4.748a2.326 2.326 0 0 1-.53-4.59zm16.956 2.265a3.926 3.926 0 0 0-2.802-3.762 4.24 4.24 0 0 0-5.011-2.525A5.8 5.8 0 0 0 2.704 10.1a3.926 3.926 0 0 0 2.046 7.274h12.5a3.928 3.928 0 0 0 3.925-3.925z" fill="#030104" stroke="#000" stroke-width=".35"/></svg>
